X:1
T:We Come in Childhood’s Joyfulness
T:We Come in Childhood’s Joyfulness
T:George Frederick Root (1820-1895)
T:Thomas Gray, Jr. (1803-1849)
T:Public Domain Courtesy of the Cyber Hymnal™
C:George Frederick Root (1820-1895)
Z:Public Domain
Z:Courtesy of the Cyber Hymnal™
%%score 1 ( 2 3 )
L:1/8
Q:1/4=105
M:6/8
K:F
V:1 treble 
V:2 bass 
V:3 bass 
V:1
 (F/A/) | [Ac]2 [Ac] [Ac]2 [Ac] | [Bd]2 [Ac] [FA]2 [FA] | [Ac]2 [GB] [EG]2 [EG] | %4
w: 1.~We *|come in child- hood’s|joy- ful- ness, We|come as chil- dren|
w: 2.~We *|come not as the|migh- ty come: Not|as the proud we|
w: 3.~To *|Thee, Thou Lord of|life and light, A-|mid the an- gel|
 [FA]3- [FA]2 (F/A/) | [Ac]2 [Ac] [Ac]2 [Ac] | [Bd]2 [Ac] [FA]2 [FA] | [Ac]2 [GB] [EG]2 [EG] | %8
w: free! * We *|of- fer up, O|God! our hearts, In|trust- ing love to|
w: bow; * But *|as the pure in|heart should bend, Seek|we thine al- tars|
w: throng, * We *|bend the knee, we|lift the heart, And|swell the ho- ly|
 [FA]3- [FA]2 [FA] | [EG]2 [EG] ([EG][DF])[EG] | [FA]2 [FA] [FA]2 [FA] | %11
w: Thee. * Well|may we bend * in|sol- emn joy At|
w: now. * “For-|bid them not,” * the|Sa- vior cried, “But|
w: song. * How|blest the chil- * dren|of the Lord, Who|
 [EG]2 [EG] ([EG][DF])[EG] | [FA]3- [FA]2 |:"^ritard. on repeat" (F/A/) | [Ac]2 [Ac] [Ac]2 [Ac] | %15
w: Thy bright courts * a-|bove: *|Well *|may the grate- ful|
w: let them come * to|Me”; *|O *|Sa- vior dear, we|
w: wait a- round * His|throne, *|How *|sweet to tread the|
 [Bd]2 [Ac] [FA]2 [FA] | [Ac]2 [GB] [EG]2 [EG] | [FA]3- [FA]2 :| %18
w: child re- joice In|such a Fa- ther’s|love. *|
w: hear Thy call, We|come, we come to|Thee. *|
w: path that leads To|yon- der hea- venly|home. *|
V:2
 F, | F,2 F, F,2 F, | [B,,F,]2 F, [F,C]2 [F,C] | [C,C]2 [C,C] [C,C]2 [C,C] | [F,C]3- [F,C]2 F, | %5
 F,2 F, F,2 F, | [B,,F,]2 F, [F,C]2 [F,C] | [C,C]2 [C,C] [C,C]2 [C,C] | [F,C]3- [F,C]2 [F,C] | %9
 [C,C]2 [C,C] [C,C]2 [C,C] | [F,C]2 [F,C] [F,C]2 [F,C] | [C,C]2 [C,C] [C,C]2 [C,C] | %12
 [F,C]3- [F,C]2 |: F, | F,2 F, F,2 F, | [B,,F,]2 F, [F,C]2 [F,C] | [C,C]2 [C,C] [C,C]2 [C,C] | %17
 [F,C]3- [F,C]2 :| %18
V:3
 F, | F,2 F, F,2 F, | x2 F, x3 | x6 | x5 F, | F,2 F, F,2 F, | x2 F, x3 | x6 | x6 | x6 | x6 | x6 | %12
 x5 |: F, | F,2 F, F,2 F, | x2 F, x3 | x6 | x5 :| %18

